svgs/pixai.svg

<svg width="192" height="192" viewBox="0 0 192 192" fill="none" xmlns="http://www.w3.org/2000/svg">
<path d="M54.2177 53.5733H125.742C129.055 53.5733 131.741 56.2596 131.741 59.5733V79.1467C131.741 82.4604 129.055 85.1467 125.741 85.1467H54.2177M54.2177 53.5733V85.1467M54.2177 53.5733H28C24.6863 53.5733 22 56.2596 22 59.5733V79.1467C22 82.4604 24.6863 85.1467 28 85.1467H54.2177M170 69.36C170 95.5162 148.363 116.72 121.673 116.72H102.642C99.3286 116.72 96.6423 119.406 96.6423 122.72V164C96.6423 167.314 93.956 170 90.6423 170H60.2177C56.904 170 54.2177 167.314 54.2177 164V28C54.2177 24.6863 56.904 22 60.2177 22H121.673C148.363 22 170 43.2038 170 69.36Z" stroke="black" stroke-width="12" stroke-linejoin="round"/>
</svg>

<svg xmlns="http://www.w3.org/2000/svg" width="192" height="192" fill="none" viewBox="0 0 192 192"><path stroke="#000" stroke-linejoin="round" stroke-width="12" d="M54.218 53.573h71.524a6 6 0 0 1 5.999 6v19.574a6 6 0 0 1-6 6H54.218m0-31.574v31.574m0-31.574H28a6 6 0 0 0-6 6v19.574a6 6 0 0 0 6 6h26.218M170 69.36c0 26.156-21.637 47.36-48.327 47.36h-19.031a6 6 0 0 0-6 6V164a6 6 0 0 1-6 6H60.218a6 6 0 0 1-6-6V28a6 6 0 0 1 6-6h61.455C148.363 22 170 43.204 170 69.36Z"/></svg>
